src/Component/Utils/Images/Icons/Css.svg

<svg xmlns="http://www.w3.org/2000/svg"  viewBox="0 0 50 50" width="50px" height="50px"><path fill-rule="evenodd" d="M 39 40 L 25 44 L 11 40 L 8 6 L 42 6 C 41 17.332031 40 28.667969 39 40 Z M 39.816406 8 L 10.183594 8 L 12.871094 38.453125 L 25 41.921875 L 37.128906 38.453125 Z M 16.800781 28 L 20.800781 28 L 20.898438 30.5 L 25 31.898438 L 29.101563 30.5 L 29.398438 26 L 20.601563 26 L 20.398438 22 L 29.601563 22 L 29.898438 18 L 16.101563 18 L 15.800781 14 L 34.101563 14 L 33.601563 22 L 32.898438 33.5 L 25 36.101563 L 17.101563 33.5 Z"/></svg>

<svg xmlns="http://www.w3.org/2000/svg" width="50" height="50"><path fill-rule="evenodd" d="m39 40-14 4-14-4L8 6h34l-3 34zm.816-32H10.184l2.687 30.453L25 41.922l12.129-3.469zM16.801 28h4l.097 2.5L25 31.898l4.102-1.398.296-4.5h-8.796l-.204-4h9.204l.296-4H16.102l-.301-4h18.3l-.5 8-.703 11.5L25 36.102 17.102 33.5z"/></svg>
